s.boot;
s.quit;

(
	// voice 1
		Pbind(
			\freq, Pseq(
				[
					[
						Rest(),
					],
					[
						Rest(),
					],
					[
						Rest(),
					],
					[
						Rest(),
					],
					[
						Rest(),
					],
					[
						Rest(),
					],
					[
						Rest(),
					],
					[
						Rest(),
					],
					[
						Rest(),
					],
				],
			),
			\dur, Pseq(
				[
					2 * 3,
					2 * 3,
					2 * 3,
					2 * 3,
					2 * 3,
					2 * 3,
					2 * 3,
					2 * 3,
					2 * 3,
				]
			,1),
			\amp, 0.125,
			\legato, 1,
		).play;
	// voice 2
		Pbind(
			\freq, Pseq(
				[
					[
						Rest(),
					],
					[
						Rest(),
					],
					[
						Rest(),
					],
					[
						Rest(),
					],
					[
						Rest(),
					],
					[
						Rest(),
					],
					[
						Rest(),
					],
					[
						Rest(),
					],
					[
						Rest(),
					],
				],
			),
			\dur, Pseq(
				[
					2 * 3,
					2 * 3,
					2 * 3,
					2 * 3,
					2 * 3,
					2 * 3,
					2 * 3,
					2 * 3,
					2 * 3,
				]
			,1),
			\amp, 0.125,
			\legato, 1,
		).play;
	// voice 3
		Pbind(
			\freq, Pseq(
				[
					[
						Rest(),
					],
					[
						Rest(),
					],
					[
						Rest(),
					],
					[
						Rest(),
					],
					[
						Rest(),
					],
					[
						Rest(),
					],
					[
						Rest(),
					],
					[
						Rest(),
					],
					[
						Rest(),
					],
				],
			),
			\dur, Pseq(
				[
					2 * 3,
					2 * 3,
					2 * 3,
					2 * 3,
					2 * 3,
					2 * 3,
					2 * 3,
					2 * 3,
					2 * 3,
				]
			,1),
			\amp, 0.125,
			\legato, 1,
		).play;
	// voice 4
		Pbind(
			\freq, Pseq(
				[
					[
						Rest(),
					],
					[
						Rest(),
					],
					[
						Rest(),
					],
					[
						Rest(),
					],
					[
						Rest(),
					],
					[
						Rest(),
					],
					[
						Rest(),
					],
					[
						Rest(),
					],
					[
						Rest(),
					],
				],
			),
			\dur, Pseq(
				[
					2 * 3,
					2 * 3,
					2 * 3,
					2 * 3,
					2 * 3,
					2 * 3,
					2 * 3,
					2 * 3,
					2 * 3,
				]
			,1),
			\amp, 0.125,
			\legato, 1,
		).play;
	// voice 5
		Pbind(
			\freq, Pseq(
				[
					[
						Rest(),
					],
					[
						Rest(),
					],
					[
						Rest(),
					],
					[
						Rest(),
					],
					[
						Rest(),
					],
					[
						Rest(),
					],
					[
						Rest(),
					],
					[
						Rest(),
					],
					[
						Rest(),
					],
				],
			),
			\dur, Pseq(
				[
					2 * 3,
					2 * 3,
					2 * 3,
					2 * 3,
					2 * 3,
					2 * 3,
					2 * 3,
					2 * 3,
					2 * 3,
				]
			,1),
			\amp, 0.125,
			\legato, 1,
		).play;
	// voice 6
		Pbind(
			\freq, Pseq(
				[
					[
						440.0,
						830.6093951598903,
					],
					[
						523.2511306011972,
						987.7666025122483,
					],
					[
						466.1637615180899,
						718.922799426084,
					],
					[
						830.6093951598903,
						538.5835590540484,
					],
					[
						538.5835590540484,
						678.5727631794939,
					],
					[
						806.9635580201107,
						640.4874004505624,
					],
					[
						570.6094040464443,
						880.0,
					],
					[
						678.5727631794939,
					],
					[
						538.5835590540484,
						678.5727631794939,
					],
					[
						806.9635580201107,
						640.4874004505624,
					],
					[
						806.9635580201107,
						640.4874004505624,
					],
					[
						538.5835590540484,
						678.5727631794939,
					],
					[
						830.6093951598903,
						538.5835590540484,
					],
					[
						718.922799426084,
					],
					[
						806.9635580201107,
						640.4874004505624,
					],
					[
						538.5835590540484,
						678.5727631794939,
					],
					[
						523.2511306011972,
						987.7666025122483,
					],
					[
						830.6093951598903,
						678.5727631794939,
					],
					[
						830.6093951598903,
						538.5835590540484,
					],
					[
						466.1637615180899,
						718.922799426084,
					],
					[
						440.0,
						830.6093951598903,
					],
					[
						523.2511306011972,
						987.7666025122483,
					],
				],
			),
			\dur, Pseq(
				[
					1 * 3,
					1 * 3,
					2/3 * 3,
					2/3 * 3,
					2/3 * 3,
					1 * 3,
					1 * 3,
					1 * 3,
					1 * 3,
					2/3 * 3,
					2/3 * 3,
					2/3 * 3,
					1 * 3,
					1 * 3,
					2/3 * 3,
					2/3 * 3,
					2/3 * 3,
					2/3 * 3,
					2/3 * 3,
					2/3 * 3,
					1 * 3,
					1 * 3,
				]
			,1),
			\amp, 0.125,
			\legato, 1,
		).play;
	// voice 7
		Pbind(
			\freq, Pseq(
				[
					[
						Rest(),
					],
					[
						Rest(),
					],
					[
						Rest(),
					],
					[
						Rest(),
					],
					[
						Rest(),
					],
					[
						Rest(),
					],
					[
						Rest(),
					],
					[
						Rest(),
					],
					[
						Rest(),
					],
				],
			),
			\dur, Pseq(
				[
					2 * 3,
					2 * 3,
					2 * 3,
					2 * 3,
					2 * 3,
					2 * 3,
					2 * 3,
					2 * 3,
					2 * 3,
				]
			,1),
			\amp, 0.125,
			\legato, 1,
		).play;
	// voice 8
		Pbind(
			\freq, Pseq(
				[
					[
						Rest(),
					],
					[
						Rest(),
					],
					[
						Rest(),
					],
					[
						Rest(),
					],
					[
						Rest(),
					],
					[
						Rest(),
					],
					[
						Rest(),
					],
					[
						Rest(),
					],
					[
						Rest(),
					],
				],
			),
			\dur, Pseq(
				[
					2 * 3,
					2 * 3,
					2 * 3,
					2 * 3,
					2 * 3,
					2 * 3,
					2 * 3,
					2 * 3,
					2 * 3,
				]
			,1),
			\amp, 0.125,
			\legato, 1,
		).play;)